X:221
T:Through the Night of Doubt and Sorrow
%%stretchlast false
M:4/4
L:1/4
K:F clef=C1
"^I"[FAcf] "^V¹"[EGc] "^vi"[DFAf] "^V"[CEcg]/ "^V7³"[B,Ecg]/ | "^I¹"[A,Fca] "^I"[F,Fca]/ "^ii"[F,Gcb]/ "^I²"[CFca] "^V"[CEcg] | "^I¹"[A,Fcc'] "^vi"[DFAf] "^ii7¹"[B,Fdg] "^vi²"[A,Fda]/ "^ii7"[G,Fdb]/ | "^I²"[CFca] "^V"[CEcg] "^I"[F,Fca]2 | [Fca] "^V"[CEcg] "^I"[Fca] "^V¹"[EGcc'] | "^vi"[DAf]/ [DA=Bf]/ "^V¹"[EGce]/ "^V"[FGce]/ "^V²"[Gce] "^ii"[G,GBd] | "^II7¹"[=B,Fdg] [G,Geg]/ "^ii7"[G,Fdg]/ "^iii"[A,Ecc'] "^V²"[G,Gce] | "^iii"[G,Acd] "^II"[G,G=Bd]/ "^II7"[G,F=Bd]/ "^V"[CEc]2 | [CEc]3/2 "^vi7³"[CFcd]/ "^V"[CGce] "^ii"[G,Bdg] | "^I¹"[A,Acf]/ "^I"[B,Acf]/ "^V"[CGce] "^IV¹"[DFBd]/ "^viiø7"[EGBd]/ "^I"[FAc] | "^vi"[DFAf] "^V"[CEcg] "^I"[Fca]/ "^ii"[FGcb]/ "^iii"[A,Acc'] | "^V7²"[G,Ecb] "^I"[F,Fca] "^V"[CEcg] "^V7³"[B,Ecg] | "^I¹"[A,Fcf] "^V"[CEc]/ "^V7³"[B,Ec]/ "^I¹"[A,Fcf] "^V²"[G,Ecg] | "^I"[F,Fca] "^vi"[DFfa]/ "^ii7²"[DGfb]/ "^I²"[CFca] "^V"[CEcg]/ "^V7³"[B,Ecg]/ | "^I¹"[A,Fcc'] "^vi"[DFAf] "^IV"[B,Fdb] "^I"[F,Fca] | [CFcg] "^V"[CEcg]/ "^V7"[CEBg]/ "^I"[F,FAf]2 |]
